packages/IonIcons/src/TrainOutlineIcon/index.svg

<svg xmlns="http://www.w3.org/2000/svg" viewBox="0 0 512 512">
  <path d="M344 48h-24a16 16 0 00-16-16h-96a16 16 0 00-16 16h-24a56.16 56.16 0 00-56 56v247c0 35.3 144 65 144 65s144-29.7 144-65V104a56 56 0 00-56-56zm-88 304a48 48 0 1148-48 48 48 0 01-48 48zm96-160a16 16 0 01-16 16H176a16 16 0 01-16-16v-64a16 16 0 0116-16h160a16 16 0 0116 16zM144 464h224m-32-32l48 48m-208-48l-48 48" fill="none" stroke="#000" stroke-linecap="round" stroke-linejoin="round" stroke-width="32"/>
</svg>

<svg xmlns="http://www.w3.org/2000/svg" width="512" height="512" viewBox="0 0 512 512"><title>ionicons-v5-q</title><path d="M344,48H320a16,16,0,0,0-16-16H208a16,16,0,0,0-16,16H168a56.16,56.16,0,0,0-56,56V351c0,35.3,144,65,144,65s144-29.7,144-65V104A56,56,0,0,0,344,48ZM256,352a48,48,0,1,1,48-48A48,48,0,0,1,256,352Zm96-160a16,16,0,0,1-16,16H176a16,16,0,0,1-16-16V128a16,16,0,0,1,16-16H336a16,16,0,0,1,16,16Z" style="fill:none;stroke:#000;stroke-linecap:round;stroke-linejoin:round;stroke-width:32px"/><line x1="144" y1="464" x2="368" y2="464" style="fill:none;stroke:#000;stroke-linecap:round;stroke-linejoin:round;stroke-width:32px"/><line x1="336" y1="432" x2="384" y2="480" style="fill:none;stroke:#000;stroke-linecap:round;stroke-linejoin:round;stroke-width:32px"/><line x1="176" y1="432" x2="128" y2="480" style="fill:none;stroke:#000;stroke-linecap:round;stroke-linejoin:round;stroke-width:32px"/></svg>
